X:1
T:Ona's Lament
C:
L:1/8
Q:200
M:3/4
K:C
 z4 de |: f3e f^g | a3(3a/_b/a/ ^gb | a3g fd | e3^c de | f3e f^g | a2 d'2 a2 | ^g6 | \
 a6 | f3e f^g | a3(3a/_b/a/ ^ga | _b4 b2 | [e4^c4] de | f2 A3f | e2 ^G2 e2 | [d6F6] | \
|1 z4 de | f3e f^g | a3(3a/_b/a/ ^gb | a3g fd | e3^c de | f3e f^g | a2 d'2 a2 | ^g6 | \
 a6 | f3e f^g | a3(3a/_b/a/ ^ga | _b4 b2 | [e4^c4] de | f2 A3f | e2 ^G2 e2 | [d6F6] | \
 z6 | d'^c' d'2 a2 | _ba b2 g2 | a^g a2 f2 | g4 a2 | _bg ab c'^c' | d'2 a2 f2 | ^g3e g2 | \
 [g4^c4] [_be][^c'g] | d'e'/d'/ ^c'd' ^ga | e2 f2 d_B | G_B de g_b | ^c'2 d'2 e'2 | \
 d'a d'2 a2 | _bf b2 g2 | a_b ge ^ce | d3f a^c' | d'e'/d'/ ^c'd' ^ga | e2 f2 d_B | \
 G_B de g_b | ^c'2 d'2 e'2 | d'a d'2 a2 | _bf b2 g2 | a_b ge ^ce | d4 de :|2 z6 | \
 z6 | z6 | z6 | z6 | z6 | z6 | z6 | \
K:
W:Created with TablEdit http://www.tabledit.com/
